X:780
T:Parks of Fochabers, The
R:Reel
B:The Athole Collection
M:C|
L:1/8
K:F
c|A/B/c cf a/g/f/e/ fd|cAdA BGGB|A/B/c cf a/g/f/e/ fd|c>AB>G F/F/F ~F:|
|:c|A/B/c Fc dBfd|cAaf gGG>B|A/B/c Fc dBfd|cAB>G F/F/F ~F:|


